lib/flags/s/OM.svg

<svg xmlns="http://www.w3.org/2000/svg" fill="none" viewBox="0 0 16 12"><mask id="OM_svg__a" width="16" height="12" x="0" y="0" mask-type="alpha" maskUnits="userSpaceOnUse"><path fill="#fff" d="M0 0H16V12H0z"/></mask><g mask="url(#OM_svg__a)"><path fill="#F50101" fill-rule="evenodd" d="M0 0V12H16V0H0Z" clip-rule="evenodd"/><mask id="OM_svg__b" width="16" height="12" x="0" y="0" mask-type="alpha" maskUnits="userSpaceOnUse"><path fill="#fff" fill-rule="evenodd" d="M0 0V12H16V0H0Z" clip-rule="evenodd"/></mask><g mask="url(#OM_svg__b)"><path fill="#F7FCFF" fill-rule="evenodd" d="M0 0V4H16V0H0Z" clip-rule="evenodd"/><path fill="#5EAA22" fill-rule="evenodd" d="M0 8V12H16V8H0Z" clip-rule="evenodd"/><path fill="#F50101" d="M0 0H6V12H0z"/><path fill="#F7FCFF" fill-rule="evenodd" d="M5.38522 1.01639C5.38995 0.970778 5.33161 0.953231 5.30835 0.992746C5.12691 1.30097 4.67212 2.03419 3.92349 2.99303V2.53419C3.85208 2.45658 3.62443 2.24779 3.62443 2.24779V1.78963L4.03627 1.41694L3.47064 0.999961L2.87446 1.41694L3.32509 1.78963V2.24779C3.32509 2.46749 3.05189 2.53419 3.05189 2.53419L3.00187 2.93834C2.3054 2.03394 1.87117 1.32877 1.68729 1.01359C1.66356 0.97291 1.60387 0.99207 1.61088 1.03864C1.66638 1.40721 1.83238 2.22502 2.29092 3.09818H2.16794V3.08193C2.16794 3.05791 2.14848 3.03845 2.12446 3.03845H1.07012C1.0461 3.03845 1.02664 3.05791 1.02664 3.08193V3.74497C1.02664 3.76898 1.0461 3.78845 1.07012 3.78845H2.12446C2.14848 3.78845 2.16794 3.76898 2.16794 3.74497V3.39687H2.30072C2.34576 3.50072 2.44919 3.57391 2.57014 3.57603C2.65464 3.7064 2.74627 3.83641 2.84564 3.96479C2.61706 3.94218 1.10638 3.81357 1.10638 4.36316C1.10638 4.69121 1.47382 4.86485 1.93464 4.95461C1.47065 5.37478 1.03269 5.77012 0.831185 5.95192C0.798491 5.98142 0.824048 6.03251 0.866789 6.02192C1.22663 5.93274 2.16986 5.6576 3.06777 5.04504L3.09574 5.04508C3.34862 5.04508 3.5245 4.93538 3.64675 4.78689C4.56001 5.53235 5.59321 5.87664 6.04171 6C6.08824 6.0128 6.1134 5.95257 6.07375 5.92505C5.70946 5.67219 4.88802 5.06365 4.04808 4.17974L4.07012 4.15394C4.24148 3.95171 4.3908 3.74369 4.52091 3.53512C4.57535 3.50329 4.6187 3.45486 4.64385 3.39687H4.77664L4.77664 3.74497C4.77664 3.76898 4.7961 3.78845 4.82012 3.78845H5.87446C5.89848 3.78845 5.91794 3.76898 5.91794 3.74497V3.08193C5.91794 3.05791 5.89848 3.03845 5.87446 3.03845H4.82012C4.80898 3.03845 4.79883 3.04263 4.79113 3.04951C5.2223 2.17677 5.34888 1.36696 5.38522 1.01639ZM4.77664 3.09818L4.77664 3.08193L4.77678 3.07837L4.7668 3.09818H4.77664ZM2.82012 3.28038C2.82012 3.414 2.71062 3.52232 2.57555 3.52232C2.44048 3.52232 2.33098 3.414 2.33098 3.28038C2.33098 3.14677 2.44048 3.03845 2.57555 3.03845C2.71062 3.03845 2.82012 3.14677 2.82012 3.28038ZM4.12446 3.28038C4.12446 3.414 4.23396 3.52232 4.36903 3.52232C4.5041 3.52232 4.61359 3.414 4.61359 3.28038C4.61359 3.14677 4.5041 3.03845 4.36903 3.03845C4.23396 3.03845 4.12446 3.14677 4.12446 3.28038Z" clip-rule="evenodd"/></g></g></svg>

<svg xmlns="http://www.w3.org/2000/svg" fill="none" viewBox="0 0 16 12"><mask id="OM_svg__a" width="16" height="12" x="0" y="0" maskUnits="userSpaceOnUse"><path fill="#fff" d="M0 0h16v12H0z"/></mask><g mask="url(#OM_svg__a)"><path fill="#F50101" fill-rule="evenodd" d="M0 0v12h16V0H0z" clip-rule="evenodd"/><mask id="OM_svg__b" width="16" height="12" x="0" y="0" maskUnits="userSpaceOnUse"><path fill="#fff" fill-rule="evenodd" d="M0 0v12h16V0H0z" clip-rule="evenodd"/></mask><g mask="url(#OM_svg__b)"><path fill="#F7FCFF" fill-rule="evenodd" d="M0 0v4h16V0H0z" clip-rule="evenodd"/><path fill="#5EAA22" fill-rule="evenodd" d="M0 8v4h16V8H0z" clip-rule="evenodd"/><path fill="#F50101" d="M0 0h6v12H0z"/><path fill="#F7FCFF" fill-rule="evenodd" d="M5.385 1.016C5.39.971 5.332.953 5.308.993a19.138 19.138 0 01-1.385 2v-.459c-.07-.077-.299-.286-.299-.286V1.79l.412-.373L3.471 1l-.597.417.451.373v.458c0 .22-.273.286-.273.286l-.05.404a18.687 18.687 0 01-1.315-1.924c-.023-.041-.083-.022-.076.025a6.71 6.71 0 00.68 2.06h-.123v-.017a.043.043 0 00-.044-.044H1.07a.043.043 0 00-.043.044v.663c0 .024.02.043.043.043h1.054a.044.044 0 00.044-.043v-.348H2.3a.3.3 0 00.27.18c.084.13.175.26.275.388-.229-.023-1.74-.151-1.74.398 0 .328.368.502.829.592L.83 5.952c-.033.03-.007.08.036.07a7.128 7.128 0 002.2-.977h.029a.68.68 0 00.55-.258c.914.745 1.947 1.09 2.396 1.213.046.013.071-.047.032-.075A13.587 13.587 0 014.048 4.18l.022-.026c.171-.202.32-.41.45-.619a.298.298 0 00.124-.138h.133v.348c0 .024.02.043.043.043h1.054a.044.044 0 00.044-.043v-.663a.043.043 0 00-.044-.044H4.82a.043.043 0 00-.029.012 6.178 6.178 0 00.594-2.034zm-.608 2.082v-.02l-.01.02h.01zM2.82 3.28c0 .134-.11.242-.244.242a.243.243 0 01-.245-.242.244.244 0 01.489 0zm1.304 0c0 .134.11.242.245.242a.243.243 0 00.245-.242.243.243 0 00-.245-.242.243.243 0 00-.245.242z" clip-rule="evenodd"/></g></g></svg>
